src/assets/mail.svg

<svg fill="none" height="45" viewBox="0 0 47 45" width="47" xmlns="http://www.w3.org/2000/svg"><g stroke="#fcfcfc" stroke-linejoin="round" stroke-width="1.74933"><path d="m1 11.25c0-2.07107 1.67893-3.75 3.75-3.75h37.5c2.0711 0 3.75 1.67893 3.75 3.75v24.375c0 2.0711-1.6789 3.75-3.75 3.75h-37.5c-2.07107 0-3.75-1.6789-3.75-3.75z"/><path d="m3.66495 9.94287c-.94541-.86662-.33227-2.44287.95024-2.44287h37.76961c1.2825 0 1.8957 1.57625.9502 2.44287l-16.034 14.69793c-2.1506 1.9713-5.4514 1.9713-7.602 0z"/></g></svg>

<svg width="47" height="45" viewBox="0 0 47 45" fill="none" xmlns="http://www.w3.org/2000/svg">
<path d="M1 11.25C1 9.17893 2.67893 7.5 4.75 7.5H42.25C44.3211 7.5 46 9.17893 46 11.25V35.625C46 37.6961 44.3211 39.375 42.25 39.375H4.75C2.67893 39.375 1 37.6961 1 35.625V11.25Z" stroke="#FCFCFC" stroke-width="1.74933" stroke-linejoin="round"/>
<path d="M3.66495 9.94287C2.71954 9.07625 3.33268 7.5 4.61519 7.5H42.3848C43.6673 7.5 44.2805 9.07625 43.335 9.94287L27.301 24.6408C25.1504 26.6121 21.8496 26.6121 19.699 24.6408L3.66495 9.94287Z" stroke="#FCFCFC" stroke-width="1.74933" stroke-linejoin="round"/>
</svg>
